X:5
T:Anon042
O:September 2002
M:4/4
L:1/4
R:Reel
K:D
A/B/ | A G F A | d3 d/e/ | f e d c | d3 d/f/ |\
 a g f d | e3 f/g/ | a g f e | f3 |]
